icons/round/content/ic_select_all_24px.svg

<svg xmlns="http://www.w3.org/2000/svg" enable-background="new 0 0 24 24" height="24" viewBox="0 0 24 24" width="24"><g><rect fill="none" height="24" width="24"/></g><g><g><path d="M3,5h2V3C3.9,3,3,3.9,3,5z M3,13h2v-2H3V13z M7,21h2v-2H7V21z M3,9h2V7H3V9z M13,3h-2v2h2V3z M19,3v2h2 C21,3.9,20.1,3,19,3z M5,21v-2H3C3,20.1,3.9,21,5,21z M3,17h2v-2H3V17z M9,3H7v2h2V3z M11,21h2v-2h-2V21z M19,13h2v-2h-2V13z M19,21c1.1,0,2-0.9,2-2h-2V21z M19,9h2V7h-2V9z M19,17h2v-2h-2V17z M15,21h2v-2h-2V21z M15,5h2V3h-2V5z M8,17h8 c0.55,0,1-0.45,1-1V8c0-0.55-0.45-1-1-1H8C7.45,7,7,7.45,7,8v8C7,16.55,7.45,17,8,17z M9,9h6v6H9V9z"/></g></g></svg>

<svg xmlns="http://www.w3.org/2000/svg" height="24" viewBox="0 0 24 24" width="24"><path d="M0 0h24v24H0V0z" fill="none"/><path d="M3 5h2V3c-1.1 0-2 .9-2 2zm0 8h2v-2H3v2zm4 8h2v-2H7v2zM3 9h2V7H3v2zm10-6h-2v2h2V3zm6 0v2h2c0-1.1-.9-2-2-2zM5 21v-2H3c0 1.1.9 2 2 2zm-2-4h2v-2H3v2zM9 3H7v2h2V3zm2 18h2v-2h-2v2zm8-8h2v-2h-2v2zm0 8c1.1 0 2-.9 2-2h-2v2zm0-12h2V7h-2v2zm0 8h2v-2h-2v2zm-4 4h2v-2h-2v2zm0-16h2V3h-2v2zM8 17h8c.55 0 1-.45 1-1V8c0-.55-.45-1-1-1H8c-.55 0-1 .45-1 1v8c0 .55.45 1 1 1zm1-8h6v6H9V9z"/></svg>
